icons/hitachi.svg

<!--
  - The MIT License (MIT)
  -
  - Copyright (c) 2015-2024 Elior "Mallowigi" Boukhobza
  -
  - Permission is hereby granted, free of charge, to any person obtaining a copy
  - of this software and associated documentation files (the "Software"), to deal
  - in the Software without restriction, including without limitation the rights
  - to use, copy, modify, merge, publish, distribute, sublicense, and/or sell
  - copies of the Software, and to permit persons to whom the Software is
  - furnished to do so, subject to the following conditions:
  -
  - The above copyright notice and this permission notice shall be included in all
  - copies or substantial portions of the Software.
  -
  - THE SOFTWARE IS PROVIDED "AS IS", WITHOUT WARRANTY OF ANY KIND, EXPRESS OR
  - IMPLIED, INCLUDING BUT NOT LIMITED TO THE WARRANTIES OF MERCHANTABILITY,
  - FITNESS FOR A PARTICULAR PURPOSE AND NONINFRINGEMENT. IN NO EVENT SHALL THE
  - AUTHORS OR COPYRIGHT HOLDERS BE LIABLE FOR ANY CLAIM, DAMAGES OR OTHER
  - LIABILITY, WHETHER IN AN ACTION OF CONTRACT, TORT OR OTHERWISE, ARISING FROM,
  - OUT OF OR IN CONNECTION WITH THE SOFTWARE OR THE USE OR OTHER DEALINGS IN THE
  - SOFTWARE.
  -
  -->

<svg  xmlns="http://www.w3.org/2000/svg" version="1.1" viewBox="0 0 512 512" width="16px" height="16px">
  <path fill="#2196F3" data-iconColor="Assembly Hitachi"
        d="M339.7229004,206.9959412l0.000061-38.5149536l39.5619507,0.000061v33.359375C362.1922607,201.9384308,350.1628113,204.1768188,339.7229004,206.9959412z M0,408.2915955l72.8810425,4.5722656l0.000061-34.1003418L0,382.6670837V408.2915955z M0,310.1142273l72.8811035,4.5722656v-34.1003418L0,284.4897156V310.1142273z M460.0201416,88.1352844l-72.8810425-3.9036255l-0.000061,34.1002808l72.8810425-4.5721436L460.0201416,88.1352844z M379.2850037,70.3036194h-39.5618591l-0.0001221,61.9559326h39.5619812V70.3036194z M434.0307617,213.5675964l25.9892578-1.6304321l0.000061-25.6245117l-72.8810425-3.9036255l-0.000061,19.7374268C403.7225952,203.2485657,419.5167847,207.2193909,434.0307617,213.5675964z M81.5733032,426.7916565l43.9456177,0.000061l0.000061-61.9559326l-43.9456177-0.000061L81.5733032,426.7916565z M81.5734253,230.4369202h43.9456177l0.000061-61.9558716l-43.9456177-0.000061L81.5734253,230.4369202z M81.5735474,132.259552h43.9456177l0.000061-61.9558716l-43.9456177-0.000061L81.5735474,132.259552z M0.000061,211.9368591l72.8811035,4.5722656V182.408783L0.000061,186.3123474V211.9368591z M330.9854736,209.7511292l0.000061-152.8695068c0-10.8082275-8.7617798-19.5700073-19.5699463-19.5700073l-158.8244019-0.0001221c-10.8082275,0-19.5700073,8.7617798-19.5700073,19.5700073l-0.0001831,386.1699219c0,10.8081665,8.7617798,19.5699463,19.5699463,19.5700073l153.6237793,0.000061C194.9272614,392.1164856,228.9675751,244.1328583,330.9854736,209.7511292z M0.0001221,113.759491l72.8811035,4.5722656V84.2314148L0.0001831,88.1349792L0.0001221,113.759491z M81.5733032,328.6142883h43.9456177l0.000061-61.9558716l-43.9456177-0.000061L81.5733032,328.6142883z M512,341.7269287c-6.5378418,3.1911316-19.3153381,10.4949951-23.8786621,31.4868164c-10.8104248,37.19104-40.1298828,66.6953125-77.3498535,77.5019226c-20.535553,4.1071472-28.291748,17.4347839-31.4865723,23.9728394c-3.1929932-6.5380554-10.4947815-19.4096375-31.4866028-23.9728394c-37.2661438-10.8258667-67.1265259-40.1339417-77.9196472-77.3883972C265.7715149,352.7915039,252.5379333,345.0334778,246,341.8404846c6.5379333-3.1946411,19.3154602-10.4947815,23.8786621-31.4865723c10.6930542-37.4508972,40.0721741-66.8665009,77.4538574-77.7193146c20.535553-4.1052856,28.7575378-17.4080505,31.9523926-23.9460907c3.1929626,6.5380402,10.2676697,19.4096222,31.259491,23.9730377c37.3180542,10.7564545,66.7415466,40.3127594,77.5769348,77.5769501C492.2266235,330.7742615,505.4621582,338.5323181,512,341.7269287z M444.8658142,273.503479c-14.7962952-14.2552795-34.2118225-23.8513947-55.7808838-26.1186066l0.0115967,26.1186066H444.8658142z M368.5628357,247.4348145c-21.3784485,2.3536072-40.628418,11.8152771-55.3170776,25.9646606h55.3170776V247.4348145z M297.1561279,389.6900024h35.940094c-27.5603027-27.056366-27.0921631-69.2674255-0.3560791-95.880127h-35.5243225C280.1477966,322.8005676,279.4534912,359.114624,297.1561279,389.6900024z M445.2258301,409.9485168l-132.1012573-0.0097351c15.81073,15.2834167,42.1835632,26.6540222,65.933136,26.6540222C404.6146851,436.592804,428.1679382,426.384613,445.2258301,409.9485168z M460.9555359,293.8098755h-36.0574646c29.0386047,28.7199402,25.993927,70.765625,0.1231995,95.880127h36.0343628C478.7291565,359.2110596,478.0042114,323.3899841,460.9555359,293.8098755z M398.145752,340.546051c0-14.6411438-15.9587402-23.8415527-28.6567993-16.5209656c-12.6980591,7.3205566-12.6980591,25.7213745,0,33.0419312C382.1870117,364.3876038,398.145752,355.1871948,398.145752,340.546051z M427.1218262,340.546051c0-37.7681274-40.1817627-61.5013733-72.1536255-42.6173096s-31.9718018,66.3505554,0.0000305,85.2346191S427.1218262,378.3141785,427.1218262,340.546051z"/>
</svg>

<svg xmlns="http://www.w3.org/2000/svg" viewBox="0 0 512 512"><path fill="#2196f3" d="M339.723 206.996V168.48h39.562v33.36c-17.093.097-29.122 2.336-39.562 5.155M0 408.292l72.881 4.572v-34.1L0 382.667zm0-98.178 72.881 4.572v-34.1L0 284.49zM460.02 88.135l-72.88-3.903-.001 34.1 72.881-4.572zm-80.735-17.831h-39.562v61.956h39.562zm54.746 143.264 25.989-1.63v-25.625l-72.881-3.904v19.737a140 140 0 0 1 46.892 11.422M81.573 426.792h43.946v-61.956H81.573zm0-196.355h43.946V168.48H81.573zm0-98.177h43.946V70.304H81.574zM0 211.937l72.881 4.572v-34.1l-72.88 3.903zm330.985-2.186V56.881c0-10.808-8.761-19.57-19.57-19.57H152.592c-10.808 0-19.57 8.762-19.57 19.57v386.17c0 10.809 8.762 19.57 19.57 19.57h153.624c-111.288-70.505-77.247-218.488 24.77-252.87M0 113.76l72.881 4.573v-34.1L.001 88.134zm81.573 214.855h43.946v-61.956H81.573zM512 341.727c-6.538 3.191-19.315 10.495-23.879 31.487-10.81 37.19-40.13 66.695-77.35 77.502-20.535 4.107-28.291 17.434-31.486 23.973-3.193-6.539-10.495-19.41-31.487-23.973-37.266-10.826-67.126-40.134-77.92-77.389-4.106-20.535-17.34-28.294-23.878-31.487 6.538-3.194 19.315-10.494 23.879-31.486 10.693-37.451 40.072-66.867 77.454-77.72 20.535-4.105 28.757-17.407 31.952-23.945 3.193 6.538 10.268 19.41 31.26 23.973 37.317 10.756 66.74 40.312 77.576 77.576 4.106 20.536 17.341 28.294 23.879 31.489m-67.134-68.224c-14.796-14.255-34.212-23.85-55.781-26.118l.012 26.118zm-76.303-26.068c-21.379 2.353-40.629 11.815-55.317 25.964h55.317zM297.156 389.69h35.94c-27.56-27.056-27.092-69.267-.356-95.88h-35.524c-17.068 28.99-17.763 65.305-.06 95.88m148.07 20.259-132.101-.01c15.81 15.283 42.183 26.654 65.933 26.654 25.557 0 49.11-10.208 66.168-26.644m15.73-116.14h-36.058c29.039 28.72 25.994 70.767.123 95.881h36.035c17.673-30.479 16.948-66.3-.1-95.88m-62.81 46.737c0-14.641-15.959-23.842-28.657-16.52-12.698 7.32-12.698 25.72 0 33.041s28.657-1.88 28.657-16.52m28.976 0c0-37.768-40.182-61.501-72.154-42.617s-31.972 66.35 0 85.234 72.154-4.849 72.154-42.617" data-iconColor="Assembly Hitachi"/></svg>
